X: 141010
Q: "Irish Reel."
M: 2/4
L: 1/16
K: G
uD2 |\
|: (ef) |\
g3a gfed | g2g2 a2(ga) | b2(ba) gfed | efga gfed |\
g2g2 a2(ga) | b2b2 a2(ga) | b2b2 a2(ga) | b2g2g2 :|



